X: 12189
T: Fabio's
R: reel
M: 4/4
K: Gmajor
BA|:GEDB, D3E|~G2GF GABd|e2ed efge|dBAG A2BA|
GEDB, D3E|~G2GF GABd|e2ed efge|1 dB (3ABA GABA:|2 dB (3ABA G2GA||
|:Beed e2ef|gefd edBA|Beed e2ef|ge (3fed e2e2|
Beed e2ef|ge (3fed edBd|e2ed efge|1 dB (3ABA G2GA:|2 dB (3ABA GABA||

